X:1
T:Falls of Corrymulzie, The
T:Falls of Corrymulzie, The
T:Alexander Walker
C:Alexander Walker
L:1/8
M:2/2
K:A
V:1 treble 
V:1
 e | c>A A/A/A A2 EC | DFCD FB,B,B | c>A A/A/A a2 ed | cABG AA,A, :| e | cAce cA{g} a2 | %7
 dB b2 gefa | cABG FAEC | DFEG A2 (Ac) | cAce cA{g} a2 | dB b2 gefa | agfe fedc | BEFG A2 A || %14

